X:2
T:Scotch Laddie,The. JGi.002
S:Joshua Gibbons MS,1823,Tealby,Lincs.
M:2/4
L:1/8
Q:3/8=100
R:quick step
O:Tealby,Lincolnshire
Z:VMP/R.Greig, 2009
K:D
dDFA|d>efd|dBAF|GE E2|d>DFA|d>efe |dBAF|dD d2:|
|:daef|d>efe|dBAF|GE E2|faef|d>efe|dBAF|dD D2:|

